X:263
T:Flower of Edinburgh
R:Country Dance
S:Twelve Country Dances for the Harpsichord, 1749.
Z:Transcribed by Bruce Olson
M:C|
L:1/4
K:G
(3 G/F/E/|D3/2E/G3/2A/|B/G/ B/d/{c/}BA/G/|{G/}F3/2E/ D/E/ F/G/|\
A/F/ d/F/EF/E/|D/E/ F/D/G3/2A/|(3B/A/G/ (3 B/c/d/ e3/2g/|\
d/B/ A/G/EG/A/|BG/A/G||d|g/f/ g3/4a/4 f/4a/4b/ a/g/|\
f/e/ f3/4g/4 f/4g/4a/ g/f/|e/d/ e/f/ g/f/ e/d/|\
Bee3/2 g/8f/8e/4|d/B/ A/G/dc/B/|e/d/ e/f/ g3/2g/8a/8b/4|\
c/B/ A/G/ EG/A/|BGG|]

